server/views/icons/other/devices.svg

<svg viewBox="0 0 26 26"><path fill="#1d1d1d" class="icon__shape" d="M21.89 8.12H19V6.7a3 3 0 0 0-3-3H4a3 3 0 0 0-3 3v9.2a3 3 0 0 0 3 3h5v1.91H6.61a1 1 0 0 0 0 2h6.92a1 1 0 0 0 0-2h-2.47V18.9h4v1a3 3 0 0 0 3 3h3.78a3 3 0 0 0 3-3v-8.78a3 3 0 0 0-2.95-3zM4 5.7h12a1 1 0 0 1 1 1v1.63a3 3 0 0 0-1.92 2.79v2.16H3V6.7a1 1 0 0 1 1-1zm0 11.2a1 1 0 0 1-1-1v-.62h12.11v1.62zm18.86 3a1 1 0 0 1-1 1h-3.75a1 1 0 0 1-1-1v-8.78a1 1 0 0 1 1-1h3.78a1 1 0 0 1 1 1z"/><circle fill="#1d1d1d" class="icon__shape" cx="20.03" cy="18.71" r="1.25"/></svg>

<svg viewBox="0 0 26 26">
  <path fill="#1d1d1d" class="icon__shape" d="M21.89,8.12H19V6.7a3,3,0,0,0-3-3H4a3,3,0,0,0-3,3v9.2a3,3,0,0,0,3,3h5v1.91H6.61a1,1,0,0,0,0,2h6.92a1,1,0,0,0,0-2H11.06V18.9h4v1a3,3,0,0,0,3,3h3.78a3,3,0,0,0,3-3V11.12A3,3,0,0,0,21.89,8.12ZM4,5.7H16a1,1,0,0,1,1,1V8.33a3,3,0,0,0-1.92,2.79v2.16H3V6.7A1,1,0,0,1,4,5.7ZM4,16.9a1,1,0,0,1-1-1v-.62H15.11V16.9Zm18.86,3a1,1,0,0,1-1,1H18.11a1,1,0,0,1-1-1V11.12a1,1,0,0,1,1-1h3.78a1,1,0,0,1,1,1Z"/>
  <circle fill="#1d1d1d" class="icon__shape" cx="20.03" cy="18.71" r="1.25"/>
</svg>
